build/assets/images/proyectos/logos/logo-self_bank.svg

<svg width="200" height="200" viewBox="0 0 200 200" fill="none" xmlns="http://www.w3.org/2000/svg">
<rect width="200" height="200" fill="white"/>
<g clip-path="url(#clip0)">
<path d="M30.3165 117.292C30.3629 117.977 30.2678 118.664 30.0372 119.31C29.8067 119.957 29.4456 120.549 28.9764 121.05C28.5073 121.55 27.94 121.949 27.3101 122.222C26.6801 122.494 26.0008 122.633 25.3146 122.632C24.6724 122.648 24.0339 122.529 23.4412 122.281C22.8485 122.033 22.315 121.663 21.8757 121.194V122.444H20.6252V107.851H21.8757V113.703C22.3208 113.201 22.8707 112.804 23.4865 112.538C24.1024 112.272 24.7692 112.145 25.4396 112.165C26.1053 112.151 26.7666 112.277 27.3813 112.533C27.9959 112.789 28.5504 113.17 29.0093 113.653C29.4682 114.135 29.8215 114.708 30.0466 115.335C30.2717 115.961 30.3636 116.628 30.3165 117.292V117.292ZM29.066 117.292C29.1039 116.777 29.035 116.259 28.8635 115.772C28.692 115.285 28.4217 114.838 28.0695 114.46C27.7173 114.082 27.2908 113.781 26.8167 113.575C26.3427 113.37 25.8313 113.264 25.3146 113.266C24.6423 113.256 23.9778 113.411 23.3787 113.716C22.7795 114.021 22.2636 114.467 21.8757 115.016V119.756C22.2757 120.303 22.8017 120.745 23.409 121.045C24.0163 121.346 24.6872 121.495 25.3646 121.481C25.8916 121.484 26.4133 121.376 26.8957 121.164C27.3781 120.951 27.8104 120.64 28.1643 120.249C28.5183 119.859 28.786 119.398 28.9499 118.897C29.1139 118.396 29.1705 117.867 29.1161 117.342L29.066 117.292Z" fill="black"/>
<path d="M41.2958 112.353L36.7065 123.457C35.9062 125.383 34.7307 126.396 33.0301 126.396C32.4489 126.4 31.8734 126.281 31.3419 126.046V124.795C31.8458 125.052 32.4021 125.189 32.9676 125.195C33.5068 125.227 34.0418 125.084 34.4926 124.786C34.9434 124.489 35.2858 124.053 35.4685 123.545L35.9062 122.444L31.617 112.303H33.0051L36.5064 120.956L39.9703 112.303L41.2958 112.353Z" fill="black"/>
<path d="M52.9254 122.832C51.2267 122.856 49.5775 122.26 48.2861 121.156V118.143C49.6024 119.395 51.3233 120.136 53.138 120.231C54.3885 120.231 55.5514 119.743 55.5514 118.543C55.5514 117.342 54.1759 116.992 52.7878 116.592C50.5245 115.954 47.986 115.116 47.986 112.14C47.986 109.164 50.4869 107.751 53.2005 107.751C54.562 107.75 55.8964 108.132 57.052 108.852V111.59C55.8999 110.824 54.5582 110.391 53.1755 110.34C51.7749 110.34 50.6745 110.94 50.6745 112.103C50.6745 113.266 52 113.666 53.7882 114.166C55.8265 114.716 58.2024 115.417 58.2024 118.33C58.2024 121.244 55.639 122.832 52.9254 122.832Z" fill="black"/>
<path d="M60.2657 108.751C60.2533 108.416 60.3413 108.084 60.5185 107.799C60.6957 107.513 60.9541 107.287 61.2605 107.149C61.5669 107.012 61.9075 106.968 62.2386 107.025C62.5697 107.082 62.8763 107.237 63.1192 107.469C63.362 107.701 63.5301 108 63.6019 108.328C63.6736 108.657 63.6458 108.999 63.5221 109.311C63.3983 109.623 63.1841 109.892 62.9069 110.082C62.6298 110.272 62.3023 110.374 61.9663 110.377C61.7453 110.393 61.5234 110.362 61.315 110.287C61.1065 110.212 60.9161 110.094 60.7559 109.941C60.5957 109.788 60.4694 109.603 60.3849 109.398C60.3005 109.193 60.2599 108.973 60.2657 108.751ZM60.6408 122.444V111.978H63.1418V122.444H60.6408Z" fill="black"/>
<path d="M75.9719 116.079V122.444H73.4709V116.304C73.4748 116 73.4137 115.699 73.2917 115.42C73.1698 115.141 72.9898 114.892 72.7637 114.688C72.5376 114.485 72.2707 114.332 71.9808 114.239C71.6909 114.147 71.3846 114.118 71.0825 114.154C70.6524 114.136 70.2244 114.222 69.8347 114.405C69.445 114.588 69.1052 114.862 68.8441 115.204V122.444H66.3431V111.978H68.7566V112.941C69.1454 112.554 69.6085 112.251 70.1179 112.049C70.6273 111.847 71.1724 111.75 71.7202 111.765C72.2937 111.727 72.8687 111.814 73.4059 112.018C73.9431 112.222 74.4299 112.54 74.8334 112.949C75.2368 113.359 75.5473 113.85 75.7438 114.39C75.9402 114.93 76.018 115.506 75.9719 116.079V116.079Z" fill="black"/>
<path d="M89.077 114.341H86.6761C86.9304 114.556 87.1308 114.827 87.2612 115.133C87.3915 115.44 87.4481 115.772 87.4264 116.104C87.4264 118.605 85.1255 119.306 83.5749 119.618C82.0243 119.931 81.249 119.868 81.249 120.481C81.249 121.094 82.1368 121.181 82.8121 121.194H83.875C85.2755 121.194 88.2267 121.369 88.2267 123.97C88.2267 126.358 85.7257 127.359 82.8746 127.359C80.0235 127.359 78.0227 126.471 78.0227 124.545C78.0227 123.37 78.823 122.432 80.4236 122.119C80.0447 122.038 79.7009 121.84 79.4406 121.552C79.1804 121.265 79.0168 120.904 78.9731 120.519C78.9731 119.768 79.4858 119.268 80.2236 119.068C79.7098 118.735 79.2918 118.274 79.011 117.73C78.7303 117.186 78.5965 116.578 78.6229 115.967C78.6229 113.466 80.5737 111.94 83.3748 111.94H89.0395L89.077 114.341ZM80.3236 124.22C80.3236 125.133 81.449 125.47 82.9871 125.47C84.5252 125.47 85.8007 125.208 85.8007 124.22C85.8007 123.232 84.7128 123.232 83.0747 123.232C81.4365 123.232 80.3486 123.245 80.3486 124.27L80.3236 124.22ZM85.0629 116.042C85.0228 115.53 84.7913 115.053 84.4147 114.705C84.038 114.356 83.5439 114.163 83.0309 114.163C82.5179 114.163 82.0238 114.356 81.6472 114.705C81.2705 115.053 81.039 115.53 80.9989 116.042C81.039 116.553 81.2705 117.031 81.6472 117.379C82.0238 117.727 82.5179 117.921 83.0309 117.921C83.5439 117.921 84.038 117.727 84.4147 117.379C84.7913 117.031 85.0228 116.553 85.0629 116.042Z" fill="black"/>
<path d="M100.281 111.978V122.444H97.9054V121.481C97.0826 122.249 95.9913 122.662 94.8667 122.632C94.2988 122.654 93.7326 122.557 93.2046 122.346C92.6766 122.136 92.1986 121.817 91.8015 121.411C91.4044 121.004 91.0969 120.519 90.899 119.986C90.7011 119.453 90.6171 118.885 90.6525 118.318V111.978H93.1535V118.118C93.1613 118.416 93.2293 118.71 93.3535 118.981C93.4778 119.253 93.6556 119.496 93.8764 119.697C94.0972 119.898 94.3564 120.052 94.6383 120.151C94.9202 120.249 95.2191 120.289 95.5169 120.269C95.9426 120.277 96.3648 120.192 96.7538 120.019C97.1428 119.846 97.489 119.59 97.7678 119.268V111.978H100.281Z" fill="black"/>
<path d="M103.37 122.444V107.851H105.871V122.444H103.37Z" fill="black"/>
<path d="M117.025 122.444H114.624V121.031C114.255 121.547 113.764 121.963 113.194 122.242C112.624 122.522 111.995 122.656 111.361 122.632C110.959 122.684 110.551 122.647 110.166 122.524C109.78 122.4 109.427 122.193 109.131 121.917C108.835 121.641 108.603 121.303 108.452 120.927C108.302 120.552 108.236 120.147 108.259 119.743C108.259 117.067 110.923 116.705 113.099 116.142C113.862 115.954 114.524 115.754 114.524 115.041C114.524 114.329 113.624 113.966 112.674 113.966C111.304 113.978 109.98 114.459 108.922 115.329V113.016C110.078 112.19 111.466 111.752 112.886 111.765C115.462 111.765 117.038 113.016 117.038 115.166L117.025 122.444ZM114.524 117.567C114.116 117.726 113.698 117.86 113.274 117.968C111.748 118.38 110.773 118.605 110.773 119.631C110.773 120.231 111.123 120.581 112.023 120.581C112.342 120.607 112.662 120.567 112.963 120.463C113.265 120.359 113.542 120.194 113.777 119.978C114.012 119.762 114.2 119.499 114.328 119.207C114.457 118.915 114.524 118.599 114.524 118.28V117.567Z" fill="black"/>
<path d="M126.454 112.015V114.416C126.046 114.309 125.626 114.255 125.204 114.254C124.702 114.229 124.202 114.33 123.75 114.549C123.298 114.767 122.907 115.096 122.615 115.504V122.419H120.114V111.978H122.415V113.228C122.733 112.774 123.162 112.409 123.661 112.168C124.16 111.928 124.713 111.819 125.266 111.853C125.667 111.868 126.064 111.922 126.454 112.015Z" fill="black"/>
<path d="M143.823 118.255C143.823 120.756 141.773 122.444 138.959 122.444H133.382V108.076H138.821C139.331 108.026 139.845 108.085 140.33 108.249C140.815 108.413 141.26 108.679 141.635 109.027C142.01 109.376 142.306 109.801 142.504 110.273C142.703 110.745 142.799 111.253 142.786 111.765C142.82 112.345 142.7 112.923 142.439 113.441C142.178 113.96 141.784 114.399 141.297 114.716C142.047 114.95 142.699 115.423 143.155 116.062C143.611 116.7 143.846 117.471 143.823 118.255V118.255ZM136.02 113.766H138.171C139.297 113.766 140.084 113.153 140.084 112.14C140.084 111.127 139.384 110.602 138.271 110.602H136.02V113.766ZM141.185 118.018C141.185 116.93 140.272 116.267 138.984 116.267H136.02V120.018H138.796C140.235 119.918 141.185 119.118 141.185 118.018Z" fill="black"/>
<path d="M154.34 122.444H151.927V121.031C151.557 121.547 151.066 121.963 150.496 122.242C149.927 122.522 149.297 122.655 148.663 122.632C148.261 122.684 147.853 122.647 147.468 122.523C147.082 122.4 146.729 122.193 146.433 121.917C146.137 121.641 145.905 121.303 145.754 120.927C145.604 120.552 145.538 120.147 145.562 119.743C145.562 117.067 148.238 116.705 150.413 116.142C151.164 115.954 151.827 115.754 151.827 115.041C151.827 114.329 150.926 113.966 149.976 113.966C148.605 113.973 147.28 114.455 146.224 115.329V113.016C147.379 112.188 148.768 111.75 150.188 111.765C152.689 111.765 154.327 113.016 154.327 115.166L154.34 122.444ZM151.839 117.567C151.431 117.726 151.013 117.86 150.589 117.968C149.063 118.38 148.088 118.605 148.088 119.631C148.088 120.231 148.438 120.581 149.338 120.581C149.656 120.607 149.976 120.567 150.278 120.463C150.58 120.359 150.857 120.194 151.092 119.978C151.327 119.762 151.514 119.499 151.643 119.207C151.772 118.915 151.838 118.599 151.839 118.28V117.567Z" fill="black"/>
<path d="M166.995 116.079V122.444H164.494V116.304C164.498 116.001 164.437 115.701 164.316 115.423C164.194 115.146 164.015 114.897 163.791 114.693C163.566 114.49 163.301 114.337 163.012 114.244C162.724 114.151 162.419 114.12 162.118 114.154C161.688 114.136 161.26 114.222 160.87 114.405C160.481 114.588 160.141 114.862 159.88 115.204V122.444H157.379V111.978H159.78V112.941C160.175 112.55 160.647 112.246 161.166 112.046C161.684 111.846 162.238 111.754 162.793 111.778C163.362 111.747 163.93 111.839 164.46 112.046C164.99 112.253 165.47 112.57 165.868 112.977C166.265 113.385 166.572 113.872 166.766 114.407C166.96 114.942 167.038 115.512 166.995 116.079V116.079Z" fill="black"/>
<path d="M175.011 117.13L180.012 122.444H176.724L172.51 117.893V122.444H170.009V107.851H172.51V116.354L176.574 111.978H179.837L175.011 117.13Z" fill="black"/>
<path d="M29.2036 101.386C26.0585 101.413 23.0106 100.297 20.6253 98.2474V92.6327C23.0673 94.9697 26.2661 96.3539 29.6413 96.5342C31.9672 96.5342 34.1431 95.6089 34.1431 93.3955C34.1431 91.1822 31.6421 90.4944 28.991 89.7691C24.7894 88.5811 20.05 87.018 20.05 81.4784C20.05 75.9387 24.6769 73.3002 29.7538 73.3002C32.2763 73.3056 34.7463 74.0206 36.8816 75.3635V80.503C34.7329 79.0891 32.2369 78.2932 29.6663 78.2021C27.0653 78.2021 25.002 79.315 25.002 81.4909C25.002 83.9043 27.503 84.392 30.8168 85.3174C34.5682 86.3428 39.02 87.6433 39.02 93.0704C39.02 98.6726 34.1681 101.386 29.2036 101.386Z" fill="black"/>
<path d="M60.3032 92.6702H46.973C47.1231 95.2337 49.7241 96.9469 52.8878 96.9469C55.3627 96.8511 57.7546 96.0292 59.7655 94.5834V98.7851C57.5538 100.281 54.9323 101.055 52.2626 100.998C46.1977 100.998 42.2587 96.9469 42.2587 90.8445C42.2587 84.7421 46.1852 80.8406 51.7249 80.8406C57.077 80.8406 60.2907 84.5045 60.2907 90.4318L60.3032 92.6702ZM47.0105 89.1563H55.7639C55.8131 88.61 55.7443 88.0595 55.562 87.5421C55.3798 87.0247 55.0885 86.5526 54.7078 86.1577C54.3271 85.7627 53.8659 85.4543 53.3556 85.2532C52.8452 85.0521 52.2976 84.9631 51.7499 84.9922C50.5694 84.9168 49.4073 85.313 48.5187 86.0937C47.6301 86.8745 47.0876 87.976 47.0105 89.1563V89.1563Z" fill="black"/>
<path d="M64.6924 100.661V73.5002H69.3942V100.661H64.6924Z" fill="black"/>
<path d="M88.1516 77.8894C87.1272 77.3563 85.9925 77.0695 84.8378 77.0516C82.8495 77.0516 81.3615 78.0395 81.3615 80.1778V81.1782H87.2388V85.5674H81.3615V100.661H76.6471V85.5674H72.6331V81.1782H76.6471V80.1028C76.6471 75.501 80.161 73 84.1751 73C85.5481 73.0055 86.9071 73.2773 88.1766 73.8003L88.1516 77.8894Z" fill="black"/>
<path d="M111.248 92.8577C111.248 97.4095 107.497 100.661 102.195 100.661H91.8156V73.9128H101.907C106.221 73.9128 109.285 76.5139 109.285 80.753C109.351 81.8311 109.131 82.9074 108.648 83.8735C108.165 84.8395 107.436 85.6611 106.534 86.2552C107.935 86.6855 109.157 87.5651 110.009 88.7584C110.861 89.9517 111.296 91.3923 111.248 92.8577ZM96.7425 84.492H100.744C102.845 84.492 104.295 83.354 104.295 81.4783C104.295 79.6026 103.045 78.6147 100.944 78.6147H96.7425V84.492ZM106.321 92.295C106.321 90.2692 104.646 89.0438 102.232 89.0438H96.7425V95.959H101.907C104.571 95.959 106.321 94.4709 106.321 92.295Z" fill="black"/>
<path d="M130.806 100.661H126.342V98.0098C125.653 98.9689 124.737 99.7427 123.677 100.262C122.617 100.781 121.444 101.03 120.264 100.986C116.45 100.986 114.499 98.7726 114.499 95.5963C114.499 90.5944 119.501 89.9441 123.515 88.9187C124.928 88.5686 126.154 88.1934 126.154 86.8554C126.154 85.2923 124.466 84.8671 122.715 84.8671C120.167 84.8741 117.699 85.7571 115.725 87.3681V83.1665C117.865 81.6109 120.445 80.7785 123.09 80.7905C127.867 80.7905 130.806 83.1665 130.806 87.1305V100.661ZM126.116 91.5697C125.366 91.8717 124.598 92.1265 123.816 92.3325C120.989 93.0953 119.126 93.508 119.126 95.4213C119.126 96.5342 119.764 97.1844 121.452 97.1844C122.044 97.2327 122.64 97.1581 123.202 96.9653C123.764 96.7726 124.28 96.4659 124.718 96.0644C125.156 95.6629 125.506 95.1752 125.747 94.6321C125.987 94.0889 126.113 93.5019 126.116 92.9078V91.5697Z" fill="black"/>
<path d="M154.34 88.8187V100.661H149.638V89.2563C149.638 86.7554 147.737 85.2548 145.211 85.2548C144.413 85.2217 143.618 85.3804 142.894 85.7177C142.169 86.0549 141.536 86.5608 141.047 87.193V100.661H136.345V81.1782H140.822V83.0039C141.557 82.2731 142.435 81.7025 143.402 81.328C144.368 80.9535 145.401 80.7833 146.437 80.828C150.826 80.7905 154.34 83.5041 154.34 88.8187Z" fill="black"/>
<path d="M169.233 90.757L178.512 100.661H172.41L164.569 92.17V100.661H159.88V73.5002H164.569V89.2564L172.072 81.1282H178.187L169.233 90.757Z" fill="black"/>
</g>
<defs>
<clipPath id="clip0">
<rect width="160" height="54.3963" fill="white" transform="translate(20 73)"/>
</clipPath>
</defs>
</svg>

<svg width="200" height="200" fill="none" xmlns="http://www.w3.org/2000/svg"><path fill="#fff" d="M0 0h200v200H0z"/><g clip-path="url(#clip0)" fill="#000"><path d="M30.317 117.292a4.998 4.998 0 01-1.34 3.758 5.015 5.015 0 01-3.662 1.582 4.559 4.559 0 01-3.44-1.438v1.25h-1.25v-14.593h1.25v5.852a4.577 4.577 0 013.565-1.538 4.79 4.79 0 014.877 5.127zm-1.251 0a3.75 3.75 0 00-3.751-4.026 4.132 4.132 0 00-3.44 1.75v4.74a4.208 4.208 0 003.49 1.725 3.752 3.752 0 003.751-4.139l-.05-.05zm12.23-4.939l-4.59 11.104c-.8 1.926-1.975 2.939-3.676 2.939a4.105 4.105 0 01-1.688-.35v-1.251c.504.257 1.06.394 1.626.4a2.496 2.496 0 002.5-1.65l.438-1.101-4.289-10.141h1.388l3.501 8.653 3.464-8.653 1.326.05zm11.629 10.479a6.988 6.988 0 01-4.639-1.676v-3.013a7.619 7.619 0 004.852 2.088c1.25 0 2.413-.488 2.413-1.688 0-1.201-1.375-1.551-2.763-1.951-2.263-.638-4.802-1.476-4.802-4.452s2.5-4.389 5.215-4.389a7.274 7.274 0 013.851 1.101v2.738a7.502 7.502 0 00-3.877-1.25c-1.4 0-2.5.6-2.5 1.763 0 1.163 1.325 1.563 3.113 2.063 2.039.55 4.414 1.251 4.414 4.164 0 2.914-2.563 4.502-5.277 4.502zm7.341-14.081a1.686 1.686 0 01.995-1.602 1.693 1.693 0 011.858.32 1.687 1.687 0 01-1.153 2.908 1.586 1.586 0 01-1.7-1.626zm.375 13.693v-10.466h2.5v10.466h-2.5zm15.331-6.365v6.365H73.47v-6.14a2.137 2.137 0 00-2.389-2.15 2.672 2.672 0 00-2.238 1.05v7.24h-2.5v-10.466h2.413v.963a4.04 4.04 0 012.963-1.176 4.004 4.004 0 014.252 4.314zm13.105-1.738h-2.4a2.131 2.131 0 01.75 1.763c0 2.501-2.302 3.202-3.852 3.514-1.55.313-2.326.25-2.326.863s.888.7 1.563.713h1.063c1.4 0 4.352.175 4.352 2.776 0 2.388-2.501 3.389-5.352 3.389-2.852 0-4.852-.888-4.852-2.814 0-1.175.8-2.113 2.4-2.426a1.848 1.848 0 01-1.45-1.6c0-.751.513-1.251 1.25-1.451a3.517 3.517 0 01-1.6-3.101c0-2.501 1.95-4.027 4.752-4.027h5.665l.037 2.401zm-8.753 9.879c0 .913 1.125 1.25 2.663 1.25 1.538 0 2.814-.262 2.814-1.25s-1.088-.988-2.726-.988c-1.639 0-2.726.013-2.726 1.038l-.025-.05zm4.739-8.178a2.036 2.036 0 00-2.032-1.879 2.035 2.035 0 00-2.032 1.879 2.038 2.038 0 004.064 0zm15.218-4.064v10.466h-2.376v-.963a4.285 4.285 0 01-3.038 1.151 4.055 4.055 0 01-3.066-1.221 4.068 4.068 0 01-1.148-3.093v-6.34h2.5v6.14a2.212 2.212 0 002.364 2.151 2.909 2.909 0 002.25-1.001v-7.29h2.514zm3.089 10.466v-14.593h2.501v14.593h-2.501zm13.655 0h-2.401v-1.413c-.369.516-.86.932-1.43 1.211-.57.28-1.199.414-1.833.39a2.75 2.75 0 01-3.102-2.889c0-2.676 2.664-3.038 4.84-3.601.763-.188 1.425-.388 1.425-1.101 0-.712-.9-1.075-1.85-1.075a5.99 5.99 0 00-3.752 1.363v-2.313a6.713 6.713 0 013.964-1.251c2.576 0 4.152 1.251 4.152 3.401l-.013 7.278zm-2.501-4.877c-.408.159-.826.293-1.25.401-1.526.412-2.501.637-2.501 1.663 0 .6.35.95 1.25.95a2.304 2.304 0 001.754-.603 2.305 2.305 0 00.747-1.698v-.713zm11.93-5.552v2.401a4.973 4.973 0 00-1.25-.162 2.993 2.993 0 00-2.589 1.25v6.915h-2.501v-10.441h2.301v1.25a3.244 3.244 0 012.851-1.375c.401.015.798.069 1.188.162zm17.369 6.24c0 2.501-2.05 4.189-4.864 4.189h-5.577v-14.368h5.439a3.61 3.61 0 013.683 2.197c.199.472.295.98.282 1.492a3.296 3.296 0 01-1.489 2.951 3.6 3.6 0 012.526 3.539zm-7.803-4.489h2.151c1.126 0 1.913-.613 1.913-1.626s-.7-1.538-1.813-1.538h-2.251v3.164zm5.165 4.252c0-1.088-.913-1.751-2.201-1.751h-2.964v3.751h2.776c1.439-.1 2.389-.9 2.389-2zm13.155 4.426h-2.413v-1.413a3.836 3.836 0 01-3.264 1.601 2.748 2.748 0 01-2.23-.715 2.752 2.752 0 01-.871-2.174c0-2.676 2.676-3.038 4.851-3.601.751-.188 1.414-.388 1.414-1.101 0-.712-.901-1.075-1.851-1.075a5.931 5.931 0 00-3.752 1.363v-2.313a6.683 6.683 0 013.964-1.251c2.501 0 4.139 1.251 4.139 3.401l.013 7.278zm-2.501-4.877c-.408.159-.826.293-1.25.401-1.526.412-2.501.637-2.501 1.663 0 .6.35.95 1.25.95a2.309 2.309 0 002.305-1.374c.129-.292.195-.608.196-.927v-.713zm15.156-1.488v6.365h-2.501v-6.14a2.136 2.136 0 00-2.376-2.15 2.674 2.674 0 00-2.238 1.05v7.24h-2.501v-10.466h2.401v.963a4.027 4.027 0 011.386-.895 4.035 4.035 0 011.627-.268 4.008 4.008 0 013.973 2.629c.194.535.272 1.105.229 1.672zm8.016 1.051l5.001 5.314h-3.288l-4.214-4.551v4.551h-2.501v-14.593h2.501v8.503l4.064-4.376h3.263l-4.826 5.152zM29.204 101.386a12.992 12.992 0 01-8.579-3.139v-5.614a14.13 14.13 0 009.016 3.901c2.326 0 4.502-.925 4.502-3.139 0-2.213-2.5-2.9-5.152-3.626-4.202-1.188-8.941-2.751-8.941-8.29 0-5.54 4.627-8.179 9.704-8.179 2.522.006 4.992.72 7.128 2.064v5.139a14.03 14.03 0 00-7.216-2.3c-2.6 0-4.664 1.112-4.664 3.288 0 2.413 2.501 2.901 5.815 3.826 3.751 1.026 8.203 2.326 8.203 7.753 0 5.603-4.852 8.316-9.816 8.316zm31.099-8.716h-13.33c.15 2.564 2.751 4.277 5.915 4.277a12.618 12.618 0 006.878-2.364v4.202a12.902 12.902 0 01-7.503 2.213c-6.065 0-10.004-4.051-10.004-10.154 0-6.102 3.926-10.003 9.466-10.003 5.352 0 8.566 3.663 8.566 9.59l.012 2.24zm-13.292-3.514h8.753a3.825 3.825 0 00-4.014-4.164 4.464 4.464 0 00-4.74 4.164zm17.681 11.505v-27.16h4.702v27.16h-4.702zm23.46-22.771a7.428 7.428 0 00-3.314-.838c-1.988 0-3.476.987-3.476 3.126v1h5.877v4.39h-5.877v15.093h-4.715V85.567h-4.014v-4.389h4.014v-1.075c0-4.602 3.514-7.103 7.528-7.103 1.373.005 2.732.277 4.002.8l-.025 4.09zm23.096 14.968c0 4.551-3.751 7.803-9.053 7.803h-10.38V73.913h10.092c4.314 0 7.378 2.6 7.378 6.84a6.14 6.14 0 01-2.751 5.502 6.68 6.68 0 014.714 6.603zm-14.505-8.366h4.001c2.101 0 3.551-1.138 3.551-3.014 0-1.875-1.25-2.863-3.351-2.863h-4.201v5.877zm9.578 7.803c0-2.026-1.675-3.251-4.089-3.251h-5.49v6.915h5.165c2.664 0 4.414-1.488 4.414-3.664zm24.485 8.366h-4.464V98.01a7.161 7.161 0 01-6.078 2.976c-3.814 0-5.765-2.213-5.765-5.39 0-5.002 5.002-5.652 9.016-6.677 1.413-.35 2.639-.726 2.639-2.064 0-1.563-1.688-1.988-3.439-1.988-2.548.007-5.016.89-6.99 2.501v-4.201a12.43 12.43 0 017.365-2.377c4.777 0 7.716 2.376 7.716 6.34v13.531zm-4.69-9.091c-.75.302-1.518.556-2.3.763-2.827.762-4.69 1.175-4.69 3.088 0 1.113.638 1.763 2.326 1.763a4.313 4.313 0 004.664-4.276V91.57zm28.224-2.751v11.842h-4.702V89.256c0-2.5-1.901-4.001-4.427-4.001a4.998 4.998 0 00-4.164 1.938v13.468h-4.702V81.178h4.477v1.826a7.5 7.5 0 015.615-2.176c4.389-.038 7.903 2.676 7.903 7.99zm14.893 1.938l9.279 9.904h-6.102l-7.841-8.491v8.491h-4.689v-27.16h4.689v15.755l7.503-8.128h6.115l-8.954 9.629z"/></g><defs><clipPath id="clip0"><path fill="#fff" transform="translate(20 73)" d="M0 0h160v54.396H0z"/></clipPath></defs></svg>
